X:1
T:James Gibb editions
T:Psalm 89.1 (Becker) - Schütz
%%score [ ( 1 2 ) ( 3 4 ) ]
L:1/8
Q:1/4=98
M:2/2
K:G
V:1 treble nm="Soprano Alto"
V:2 treble 
V:3 bass nm="Tenor Bass"
V:4 bass 
V:1
"^Cornelius Becker\n(1561-1604)""^Psalm 89 part 1, SWV 186""^Heinrich Schütz\n(1585-1672)" e4 d4 | %1
w: ~Ich will|
w: sei- ne|
 B2 d4 c2 | B4 G2 A2 | B2 d2 c2 B2 | B8 :| d4 e4 | d2 c4 A2 | B6 B2 | A2 A2 A2 G2 | E4 E2 E2 | %10
w: von Gna- de|sin- gen des|Her- ren e- wig-|lich,|||Reich e-|wi- ge Gnad wird|wal- ten, der|
w: Wahr- heit ver-|kün- den, mein|Mund soll schwei- gen|nicht||||||
 G2 F2 G2 A2 | B4 B2 G2 | G4 G4 | F4 F4 | E8 |] %15
w: Herr wird treu- lich|hal- ten, sein|Wahr- heit|nie- mals|trügt.|
w: |||||
V:2
 G4 F4 | G2 A4 A2 | F4 E2 F2 | G2 F2 A2 G2 | F8 :| G4 G4 | G2 A4 F2 | G6 G2 | F2 F2 F2 E2 | %9
w: |||||ich sag,|in Chri- sti|||
 ^C4 C2 C2 | E2 ^D2 E2 F2 | G4 G2 E2 | E4 E2 (E2- | E2 ^D^C) !courtesy!^D4 | E8 |] %15
w: ||||||
V:3
 B,4 B,4 | D2 F4 E2 | D4 B,2 D2 | D2 D2 E2 E2 | ^D8 :| B,4 C4 | D2 E4 D2 | %7
[M:2/2]"^3. Die Himmel werden preisen, \nHerr Gott, die Wunder dein, \nund dein Wahrheit mit Fleiße \nin heiliger Gemein, \nim Himm'l und allem Reich,\nunter der Götter Kinden \nwird man nicht einen finden, \nder sich, Herr, dir vergleicht.\n\n5. Dein Herrrschaft sich erstrecket \naufs ungestüme Meer, \nwenn Wellen es bedecken, \nstillst du sein Brausen schwer. \nHerr Gott, Herr Zebaoth,\nmächtig sind deine Werke, \nwer ist dir gleich an Stärke? \nDein Wahrheit um dich staht.\n\n6. Dein ist Himmel und Erden, \ndu hast gelegt den Grund, \nalles was du heißt werden, \ndas muß da stehn zur Stund.\nMittag und Mitternacht \ndein Allmacht hat bereitet, \ndu gibst uns gute Zeiten, \nLob, Ehr man von dir sagt.\n" D6 D2 | %8
 D2 D2 D2 B,2 | %9
 A,4"^7. Dein Arm ist groß von Taten, \nsehr stark ist deine Hand, \ndein Rechte hoch erhaben \nin aller Welt bekannt,\ndas Recht und das Gericht, \nHerr, deinen Thron erhalten, \nGnad und Wahrheit stets walten, \nvor deinem Angesicht.\n\n8. Wohl dem Volk, das im Herren \nkann jauchzen und sich freun, \nvor dir sie wandeln werden \nim Licht des Antlitz dein, \nsie werden allezeit \nfröhlich in deinem Namen \nherrlich treten zusammen \nin deiner G'rechtigkeit.\n\n10. Du hast dein Rat entdecket \nim G'sicht den Heilgen wohl, \ndu sprachst: Ich hab erwecket \nein Held, der helfen soll, \nich bin sein Schirm und Schutz, \nich will selbst für ihn kämpfen, \nund seine Feinde dämpfen,\nvergehn muß all ihr Trutz." A,2 A,2 | %10
 B,2 B,2 B,2 D2 | %11
 D4 D2"^13. Sein Reich will ich ausbreiten, \ndaß er herrscht auf dem Meer, \nund an des Wassers Seiten \nsein Rechte rings umher. \nEr wird mich nennen wohl: \nDu bist mein Vater selber,\nmein Gott, mein Hort, mein Helfer,\nauf den ich trauen soll.\n\n14. Er soll genennet werden \nmein erstgeborner Sohn, \ner ist der Höchst auf Erden \nund trägt die Ehrenkron,\nes soll aufs allerbest \nmein Gnad über ihm walten, \nmein Bund will ich ihm halten \newiglich treu und fest." C2 | %12
 C4 B,4 | B,4 B,4 | B,8 |] %15
V:4
 E,4 B,4 | G,2 D,4 A,2 | B,4 E,2 D,2 | G,2 B,2 A,2 E,2 | B,8 :| G,4 C,4 | B,2 A,4 D,2 | %7
[M:2/2] G,6 G,2 | D,2 D,2 D,2 E,2 | A,,4 A,,2 A,,2 | E,2 B,,2 E,2 D,2 | G,4 G,2 C,2 | C,4 E,4 | %13
 B,,4 B,,4 | E,8 |] %15

